X: 42560
T: When Sick Is It Tea That You Want?
R: jig
M: 6/8
K: Dmajor
B|:Add dcB|ABA AFA|ABd ede|fdB ~B3|
Add dcB|ABA AFA|ABd ede|1 fdc d2B:|2 fdc dfg||
|:afd dcd|BGF G2 a|bge e2d|cAA A2 G|
FAd fdB|ABA AFA|ABd ede|1 fdc dfg:|2 fdc d2B||

